.local/share/icons/Gruvbox-Plus-Dark/actions/24/vm-snapshot-current.svg

<svg xmlns="http://www.w3.org/2000/svg" width="24" height="24" version="1.1">
 <defs>
  <style id="current-color-scheme" type="text/css">
   .ColorScheme-Text { color:#555555; } .ColorScheme-Highlight { color:#4285f4; } .ColorScheme-NeutralText { color:#ff9800; } .ColorScheme-PositiveText { color:#4caf50; } .ColorScheme-NegativeText { color:#f44336; }
  </style>
 </defs>
 <path style="fill:currentColor" class="ColorScheme-Text" d="M 8.5,4 C 7.132132,4 6,5.1321323 6,6.5 V 9.0507811 C 4.866938,9.2861801 4,10.303116 4,11.5 v 6 C 4,18.867868 5.132132,20 6.5,20 h 6 c 1.196884,0 2.21382,-0.866938 2.449219,-2 H 17.5 C 18.867868,18 20,16.867868 20,15.5 V 9.5000001 C 20,8.1321322 18.867868,7 17.5,7 H 17 V 6.5 C 17,5.1321323 15.867868,4 14.5,4 Z m 0,2 h 6 C 14.794463,6 15,6.2055367 15,6.5 V 7 H 11.5 C 10.303116,7 9.2861798,7.8669383 9.0507812,9.0000001 H 8 V 6.5 C 8,6.2055367 8.2055368,6 8.5,6 Z m 4,3.0000001 h 5 c 0.294463,0 0.5,0.205537 0.5,0.5 V 15.5 C 18,15.794463 17.794463,16 17.5,16 H 15 V 11.5 C 15,10.132132 13.867868,9.0000001 12.5,9.0000001 Z M 6.5,11 h 2.5 2 1.5 c 0.294463,0 0.5,0.205537 0.5,0.5 v 6 c 0,0.294463 -0.205537,0.5 -0.5,0.5 h -6 C 6.205537,18 6,17.794463 6,17.5 v -6 C 6,11.205537 6.205537,11 6.5,11 Z"/>
</svg>

<svg width="24" height="24" version="1.1" xmlns="http://www.w3.org/2000/svg">
  <defs>
    <style id="current-color-scheme" type="text/css">.ColorScheme-Text { color:#ebdbb2; } .ColorScheme-Highlight { color:#458588; }</style>
  </defs>
  <path class="ColorScheme-Text" d="m8.5 4c-1.368 0-2.5 1.132-2.5 2.5v2.551c-1.133 0.2354-2 1.252-2 2.449v6c0 1.368 1.132 2.5 2.5 2.5h6c1.197 0 2.214-0.8669 2.449-2h2.551c1.368 0 2.5-1.132 2.5-2.5v-6c0-1.368-1.132-2.5-2.5-2.5h-0.5v-0.5c0-1.368-1.132-2.5-2.5-2.5zm0 2h6c0.2945 0 0.5 0.2055 0.5 0.5v0.5h-3.5c-1.197 0-2.214 0.8669-2.449 2h-1.051v-2.5c0-0.2945 0.2055-0.5 0.5-0.5zm4 3h5c0.2945 0 0.5 0.2055 0.5 0.5v6c0 0.2945-0.2055 0.5-0.5 0.5h-2.5v-4.5c0-1.368-1.132-2.5-2.5-2.5zm-6 2h6c0.2945 0 0.5 0.2055 0.5 0.5v6c0 0.2945-0.2055 0.5-0.5 0.5h-6c-0.2945 0-0.5-0.2055-0.5-0.5v-6c0-0.2945 0.2055-0.5 0.5-0.5z" fill="currentColor"/>
</svg>
